svg/fluentui-system-icons/ic_fluent_notepad_20_filled.svg

<svg width="20" height="20" viewBox="0 0 20 20" fill="none" xmlns="http://www.w3.org/2000/svg">
<path d="M7 2.5C7 2.22386 6.77614 2 6.5 2C6.22386 2 6 2.22386 6 2.5V3H5.5C4.67157 3 4 3.67157 4 4.5V16.5C4 17.3284 4.67157 18 5.5 18H11V14.5C11 13.6716 11.6716 13 12.5 13H16V4.5C16 3.67157 15.3284 3 14.5 3H14V2.5C14 2.22386 13.7761 2 13.5 2C13.2239 2 13 2.22386 13 2.5V3H10.5V2.5C10.5 2.22386 10.2761 2 10 2C9.72386 2 9.5 2.22386 9.5 2.5V3H7V2.5ZM7 7.5C7 7.22386 7.22386 7 7.5 7H12.5C12.7761 7 13 7.22386 13 7.5C13 7.77614 12.7761 8 12.5 8H7.5C7.22386 8 7 7.77614 7 7.5ZM7.5 10H12.5C12.7761 10 13 10.2239 13 10.5C13 10.7761 12.7761 11 12.5 11H7.5C7.22386 11 7 10.7761 7 10.5C7 10.2239 7.22386 10 7.5 10ZM7 13.5C7 13.2239 7.22386 13 7.5 13H9.5C9.77614 13 10 13.2239 10 13.5C10 13.7761 9.77614 14 9.5 14H7.5C7.22386 14 7 13.7761 7 13.5ZM15.6892 14H12.5C12.2239 14 12 14.2239 12 14.5V17.6892C12.0513 17.6498 12.1002 17.6069 12.1464 17.5607L15.5607 14.1464C15.6069 14.1002 15.6498 14.0513 15.6892 14Z" fill="#212121"/>
</svg>

<svg xmlns="http://www.w3.org/2000/svg" width="20" height="20"><path d="M7 2.5a.5.5 0 0 0-1 0V3h-.5A1.5 1.5 0 0 0 4 4.5v12A1.5 1.5 0 0 0 5.5 18H11v-3.5a1.5 1.5 0 0 1 1.5-1.5H16V4.5A1.5 1.5 0 0 0 14.5 3H14v-.5a.5.5 0 0 0-1 0V3h-2.5v-.5a.5.5 0 0 0-1 0V3H7v-.5Zm0 5a.5.5 0 0 1 .5-.5h5a.5.5 0 0 1 0 1h-5a.5.5 0 0 1-.5-.5Zm.5 2.5h5a.5.5 0 0 1 0 1h-5a.5.5 0 0 1 0-1ZM7 13.5a.5.5 0 0 1 .5-.5h2a.5.5 0 0 1 0 1h-2a.5.5 0 0 1-.5-.5Zm8.69.5H12.5a.5.5 0 0 0-.5.5v3.19c.051-.04.1-.083.146-.13l3.415-3.414a1.47 1.47 0 0 0 .128-.146Z"/></svg>
